;START_OF_HEADER
;HEADER_VERSION:0.1
;FLAVOR:Griffin
;GENERATOR.NAME:Cura_SteamEngine
;GENERATOR.VERSION:4.4.1
;GENERATOR.BUILD_DATE:2019-12-23
;TARGET_MACHINE.NAME:Ultimaker S5
;EXTRUDER_TRAIN.0.INITIAL_TEMPERATURE:200
;EXTRUDER_TRAIN.0.MATERIAL.VOLUME_USED:3968
;EXTRUDER_TRAIN.0.MATERIAL.GUID:506c9f0d-e3aa-4bd4-b2d2-23e2425b1aa9
;EXTRUDER_TRAIN.0.NOZZLE.DIAMETER:0.4
;EXTRUDER_TRAIN.0.NOZZLE.NAME:AA 0.4
;BUILD_PLATE.TYPE:glass
;BUILD_PLATE.INITIAL_TEMPERATURE:60
;BUILD_VOLUME.TEMPERATURE:28
;PRINT.TIME:4916
;PRINT.GROUPS:1
;PRINT.SIZE.MIN.X:134.821
;PRINT.SIZE.MIN.Y:89.32
;PRINT.SIZE.MIN.Z:0.2
;PRINT.SIZE.MAX.X:195.179
;PRINT.SIZE.MAX.Y:150.68
;PRINT.SIZE.MAX.Z:28
;END_OF_HEADER
;Generated with Cura_SteamEngine 4.4.1
T0
M82 ;absolute extrusion mode

G92 E0
M109 S200
G280 S1
G0 Z20.001
G1 F1500 E-6.5
;LAYER_COUNT:279
;LAYER:0
M107
M204 S625
M205 X10 Y10
G1 F600 Z2.2
G0 F2571.4 X193.788 Y131.914 Z2.2
M204 S500
M205 X5 Y5
;TYPE:SKIRT
G1 F600 Z0.2
G1 F1500 E0
G1 F1200 X193.309 Y132.484 E0.0098
G1 X192.772 Y132.999 E0.0196
G1 X192.183 Y133.454 E0.0294
G1 X191.549 Y133.843 E0.0392
G1 X190.876 Y134.162 E0.049
G1 X190.173 Y134.407 E0.0588
G1 X189.448 Y134.575 E0.0686
G1 X188.709 Y134.664 E0.0784
G1 X188.249 Y134.679 E0.08447
G1 X171.676 Y134.679 E0.30269
G1 X171.676 Y143.231 E0.4153
G1 X171.636 Y143.974 E0.42509
G1 X171.517 Y144.709 E0.4349
G1 X171.319 Y145.427 E0.4447
G1 X171.046 Y146.119 E0.4545
G1 X170.7 Y146.778 E0.4643
G1 X170.285 Y147.396 E0.4741
G1 X169.806 Y147.966 E0.48391
G1 X169.269 Y148.481 E0.4937
G1 X168.68 Y148.936 E0.5035
G1 X167.936 Y149.383 E0.51493
G1 X166.935 Y149.902 E0.52978
G1 X166.257 Y150.209 E0.53958
G1 X165.549 Y150.441 E0.54939
G1 X164.821 Y150.596 E0.55919
G1 X163.745 Y150.68 E0.5734
G1 X143.919 Y150.68 E0.83446
G1 X143.573 Y150.671 E0.83902
G1 X143.093 Y150.647 E0.84534
G1 X142.353 Y150.57 E0.85514
G1 X141.625 Y150.414 E0.86494
G1 X140.918 Y150.181 E0.87475
G1 X140.24 Y149.874 E0.88455
G1 X139.599 Y149.495 E0.89435
G1 X139.023 Y149.067 E0.9038
G1 X138.405 Y148.556 E0.91436
G1 X137.921 Y148.115 E0.92298
G1 X136.851 Y147.045 E0.94291
G1 X136.353 Y146.491 E0.95271
G1 X135.918 Y145.887 E0.96251
G1 X135.551 Y145.24 E0.97231
G1 X135.254 Y144.558 E0.9821
G1 X135.033 Y143.847 E0.99191
G1 X134.889 Y143.117 E1.00171
G1 X134.821 Y142.145 E1.01454
G1 X134.821 Y97.855 E1.59772
G1 X134.861 Y97.112 E1.60752
G1 X134.98 Y96.377 E1.61732
G1 X135.178 Y95.659 E1.62713
G1 X135.451 Y94.967 E1.63692
G1 X135.797 Y94.308 E1.64672
G1 X136.212 Y93.69 E1.65653
G1 X136.851 Y92.955 E1.66935
G1 X137.92 Y91.886 E1.68926
G1 X138.407 Y91.443 E1.69792
G1 X139.056 Y90.907 E1.70901
G1 X139.655 Y90.464 E1.71882
G1 X140.297 Y90.089 E1.72861
G1 X140.976 Y89.784 E1.73841
G1 X141.684 Y89.554 E1.74821
G1 X142.413 Y89.401 E1.75802
G1 X143.469 Y89.32 E1.77197
G1 X163.745 Y89.32 E2.03895
G1 X164.488 Y89.36 E2.04874
G1 X165.223 Y89.479 E2.05855
G1 X165.941 Y89.677 E2.06836
G1 X166.935 Y90.098 E2.08257
G1 X167.936 Y90.617 E2.09742
G1 X168.577 Y90.994 E2.10721
G1 X169.174 Y91.439 E2.11701
G1 X169.721 Y91.944 E2.12682
G1 X170.209 Y92.506 E2.13662
G1 X170.635 Y93.116 E2.14641
G1 X170.993 Y93.769 E2.15622
G1 X171.279 Y94.456 E2.16602
G1 X171.489 Y95.17 E2.17582
G1 X171.622 Y95.902 E2.18561
G1 X171.676 Y96.769 E2.19705
G1 X171.676 Y105.322 E2.30967
G1 X188.249 Y105.322 E2.5279
G1 X188.992 Y105.362 E2.53769
G1 X189.727 Y105.481 E2.5475
G1 X190.445 Y105.679 E2.5573
G1 X191.137 Y105.952 E2.5671
G1 X191.796 Y106.298 E2.5769
G1 X192.414 Y106.713 E2.5867
G1 X192.984 Y107.192 E2.59651
G1 X193.499 Y107.729 E2.6063
G1 X193.954 Y108.318 E2.6161
G1 X194.343 Y108.952 E2.6259
G1 X194.662 Y109.625 E2.6357
G1 X194.907 Y110.328 E2.64551
G1 X195.075 Y111.053 E2.65531
G1 X195.164 Y111.792 E2.66511
G1 X195.179 Y112.252 E2.67117
G1 X195.179 Y127.749 E2.87522
G1 X195.139 Y128.492 E2.88502
G1 X195.02 Y129.227 E2.89482
G1 X194.822 Y129.945 E2.90463
G1 X194.549 Y130.637 E2.91443
G1 X194.203 Y131.296 E2.92423
G1 X193.788 Y131.914 E2.93403
M204 S625
M205 X10 Y10
G0 F2571.4 X193.371 Y131.767
M204 S500
M205 X5 Y5
G1 F1200 X192.895 Y132.309 E2.94353
G1 X192.362 Y132.795 E2.95302
G1 X191.778 Y133.219 E2.96253
G1 X191.151 Y133.576 E2.97203
G1 X190.489 Y133.862 E2.98152
G1 X189.799 Y134.072 E2.99102
G1 X189.09 Y134.204 E3.00052
G1 X188.249 Y134.259 E3.01161
G1 X171.256 Y134.259 E3.23537
G1 X171.256 Y143.231 E3.35351
G1 X171.216 Y143.951 E3.363
G1 X171.097 Y144.663 E3.37251
G1 X170.899 Y145.357 E3.38201
G1 X170.626 Y146.024 E3.3915
G1 X170.281 Y146.658 E3.401
G1 X169.868 Y147.249 E3.4105
G1 X169.392 Y147.791 E3.41999
G1 X168.859 Y148.277 E3.42949
G1 X168.275 Y148.701 E3.43899
G1 X167.742 Y149.01 E3.44711
G1 X166.741 Y149.529 E3.46195
G1 X166.084 Y149.825 E3.47144
G1 X165.397 Y150.047 E3.48095
G1 X164.69 Y150.191 E3.49045
G1 X163.745 Y150.26 E3.50293
G1 X143.919 Y150.26 E3.76398
G1 X143.594 Y150.252 E3.76826
G1 X143.114 Y150.228 E3.77459
G1 X142.397 Y150.152 E3.78409
G1 X141.692 Y149.997 E3.79359
G1 X141.009 Y149.765 E3.80309
G1 X140.356 Y149.459 E3.81258
G1 X139.74 Y149.083 E3.82209
G1 X139.291 Y148.743 E3.8295
G1 X138.673 Y148.232 E3.84006
G1 X138.218 Y147.818 E3.84816
G1 X137.148 Y146.748 E3.86809
G1 X136.667 Y146.211 E3.87758
G1 X136.248 Y145.623 E3.88709
G1 X135.897 Y144.993 E3.89658
G1 X135.618 Y144.328 E3.90608
G1 X135.414 Y143.636 E3.91558
G1 X135.288 Y142.926 E3.92507
G1 X135.241 Y142.145 E3.93537
G1 X135.241 Y97.855 E4.51856
G1 X135.281 Y97.135 E4.52805
G1 X135.4 Y96.423 E4.53756
G1 X135.598 Y95.729 E4.54706
G1 X135.871 Y95.062 E4.55655
G1 X136.216 Y94.428 E4.56606
G1 X136.629 Y93.837 E4.57555
G1 X137.148 Y93.252 E4.58585
G1 X138.217 Y92.183 E4.60575
G1 X138.675 Y91.767 E4.6139
G1 X139.324 Y91.231 E4.62498
G1 X139.904 Y90.803 E4.63447
G1 X140.529 Y90.442 E4.64398
G1 X141.19 Y90.152 E4.65348
G1 X141.878 Y89.937 E4.66297
G1 X142.586 Y89.8 E4.67247
G1 X143.469 Y89.74 E4.68412
G1 X163.745 Y89.74 E4.9511
G1 X164.465 Y89.78 E4.9606
G1 X165.177 Y89.899 E4.97011
G1 X165.871 Y90.097 E4.97961
G1 X166.741 Y90.471 E4.99208
G1 X167.742 Y90.99 E5.00692
G1 X168.364 Y91.357 E5.01643
G1 X168.94 Y91.79 E5.02592
G1 X169.465 Y92.285 E5.03542
G1 X169.932 Y92.834 E5.04491
G1 X170.336 Y93.432 E5.05442
G1 X170.671 Y94.071 E5.06392
G1 X170.933 Y94.743 E5.07341
G1 X171.119 Y95.44 E5.08291
G1 X171.227 Y96.154 E5.09242
G1 X171.256 Y96.769 E5.10053
G1 X171.256 Y105.742 E5.21868
G1 X188.249 Y105.742 E5.44243
G1 X188.969 Y105.782 E5.45193
G1 X189.681 Y105.901 E5.46143
G1 X190.375 Y106.099 E5.47094
G1 X191.042 Y106.372 E5.48043
G1 X191.676 Y106.717 E5.48993
G1 X192.267 Y107.13 E5.49942
G1 X192.809 Y107.606 E5.50892
G1 X193.295 Y108.139 E5.51842
G1 X193.719 Y108.723 E5.52792
G1 X194.076 Y109.35 E5.53742
G1 X194.362 Y110.012 E5.54692
G1 X194.572 Y110.702 E5.55641
G1 X194.704 Y111.411 E5.56591
G1 X194.759 Y112.252 E5.57701
G1 X194.759 Y127.749 E5.78106
G1 X194.719 Y128.469 E5.79056
G1 X194.6 Y129.181 E5.80006
G1 X194.402 Y129.875 E5.80957
G1 X194.129 Y130.542 E5.81906
G1 X193.784 Y131.176 E5.82856
G1 X193.371 Y131.767 E5.83805
M204 S625
M205 X10 Y10
G0 F2571.4 X192.954 Y131.615
M204 S500
M205 X5 Y5
G1 F1200 X192.481 Y132.128 E5.84724
G1 X191.953 Y132.583 E5.85642
G1 X191.376 Y132.975 E5.8656
G1 X190.757 Y133.298 E5.8748
G1 X190.106 Y133.549 E5.88399
G1 X189.43 Y133.723 E5.89318
G1 X188.739 Y133.819 E5.90236
G1 X188.249 Y133.839 E5.90882
G1 X170.836 Y133.839 E6.1381
G1 X170.836 Y143.231 E6.26177
G1 X170.796 Y143.928 E6.27096
G1 X170.677 Y144.615 E6.28015
G1 X170.479 Y145.284 E6.28933
G1 X170.207 Y145.927 E6.29853
G1 X169.863 Y146.533 E6.3077
G1 X169.451 Y147.097 E6.3169
G1 X168.978 Y147.61 E6.32609
G1 X168.45 Y148.065 E6.33526
G1 X167.873 Y148.457 E6.34445
G1 X167.549 Y148.638 E6.34933
G1 X166.548 Y149.157 E6.36418
G1 X165.911 Y149.442 E6.37337
G1 X165.246 Y149.652 E6.38255
G1 X164.561 Y149.785 E6.39174
G1 X163.745 Y149.84 E6.40251
G1 X143.919 Y149.84 E6.66357
G1 X143.615 Y149.832 E6.66757
G1 X143.135 Y149.808 E6.6739
G1 X142.441 Y149.734 E6.68309
G1 X141.761 Y149.58 E6.69227
G1 X141.102 Y149.35 E6.70146
G1 X140.474 Y149.046 E6.71065
G1 X139.885 Y148.672 E6.71983
G1 X139.558 Y148.419 E6.72528
G1 X138.94 Y147.908 E6.73584
G1 X138.515 Y147.521 E6.74341
G1 X137.445 Y146.451 E6.76333
G1 X136.98 Y145.93 E6.77253
G1 X136.579 Y145.36 E6.7817
G1 X136.245 Y144.747 E6.79089
G1 X135.983 Y144.1 E6.80009
G1 X135.798 Y143.428 E6.80926
G1 X135.69 Y142.739 E6.81845
G1 X135.661 Y142.145 E6.82628
G1 X135.661 Y97.855 E7.40946
G1 X135.701 Y97.158 E7.41865
G1 X135.82 Y96.471 E7.42783
G1 X136.018 Y95.802 E7.43702
G1 X136.29 Y95.159 E7.44621
G1 X136.634 Y94.553 E7.45539
G1 X137.046 Y93.989 E7.46459
G1 X137.445 Y93.549 E7.47241
G1 X138.514 Y92.48 E7.49231
G1 X138.942 Y92.09 E7.49994
G1 X139.591 Y91.554 E7.51102
G1 X140.153 Y91.142 E7.5202
G1 X140.76 Y90.796 E7.5294
G1 X141.401 Y90.522 E7.53858
G1 X142.07 Y90.323 E7.54777
G1 X142.757 Y90.202 E7.55695
G1 X143.469 Y90.16 E7.56634
G1 X163.745 Y90.16 E7.83333
G1 X164.442 Y90.2 E7.84252
G1 X165.129 Y90.319 E7.8517
G1 X165.798 Y90.517 E7.86089
G1 X166.548 Y90.843 E7.87165
G1 X167.549 Y91.362 E7.8865
G1 X168.149 Y91.719 E7.89569
G1 X168.704 Y92.141 E7.90487
G1 X169.208 Y92.624 E7.91407
G1 X169.653 Y93.162 E7.92326
G1 X170.033 Y93.747 E7.93244
G1 X170.344 Y94.371 E7.94163
G1 X170.582 Y95.027 E7.95081
G1 X170.743 Y95.706 E7.96
G1 X170.825 Y96.399 E7.96919
G1 X170.836 Y96.769 E7.97407
G1 X170.836 Y106.162 E8.09775
G1 X188.249 Y106.162 E8.32703
G1 X188.946 Y106.202 E8.33622
G1 X189.633 Y106.321 E8.3454
G1 X190.302 Y106.519 E8.35459
G1 X190.945 Y106.791 E8.36378
G1 X191.551 Y107.135 E8.37296
G1 X192.115 Y107.547 E8.38216
G1 X192.628 Y108.02 E8.39134
G1 X193.083 Y108.548 E8.40052
G1 X193.475 Y109.125 E8.40971
G1 X193.798 Y109.744 E8.4189
G1 X194.049 Y110.395 E8.42809
G1 X194.223 Y111.071 E8.43728
G1 X194.319 Y111.762 E8.44646
G1 X194.339 Y112.252 E8.45292
G1 X194.339 Y127.749 E8.65698
G1 X194.299 Y128.446 E8.66617
G1 X194.18 Y129.133 E8.67535
G1 X193.982 Y129.802 E8.68454
G1 X193.71 Y130.445 E8.69373
G1 X193.366 Y131.051 E8.70291
G1 X192.954 Y131.615 E8.7121
M204 S625
M205 X10 Y10
G0 F2571.4 X192.948 Y130.922
M204 S500
M205 X5 Y5
G1 F1200 X192.539 Y131.457 E8.72097
G1 X192.069 Y131.939 E8.72983
G1 X191.545 Y132.362 E8.7387
G1 X190.975 Y132.721 E8.74757
G1 X190.367 Y133.009 E8.75643
G1 X189.729 Y133.223 E8.76529
G1 X189.069 Y133.359 E8.77416
G1 X188.249 Y133.419 E8.78499
G1 X170.416 Y133.419 E9.0198
G1 X170.416 Y143.231 E9.149
G1 X170.376 Y143.903 E9.15787
G1 X170.257 Y144.566 E9.16674
G1 X170.06 Y145.209 E9.17559
G1 X169.788 Y145.825 E9.18446
G1 X169.445 Y146.404 E9.19332
G1 X169.036 Y146.939 E9.20219
G1 X168.566 Y147.421 E9.21105
G1 X168.042 Y147.844 E9.21992
G1 X167.356 Y148.265 E9.23052
G1 X166.355 Y148.784 E9.24536
G1 X165.74 Y149.057 E9.25422
G1 X165.097 Y149.257 E9.26309
G1 X164.435 Y149.378 E9.27195
G1 X163.745 Y149.42 E9.28105
G1 X143.919 Y149.42 E9.54211
G1 X143.636 Y149.413 E9.54584
G1 X143.156 Y149.389 E9.55217
G1 X142.487 Y149.315 E9.56103
G1 X141.831 Y149.163 E9.5699
G1 X141.198 Y148.934 E9.57876
G1 X140.596 Y148.632 E9.58763
G1 X139.826 Y148.096 E9.59998
G1 X139.208 Y147.585 E9.61054
G1 X138.812 Y147.224 E9.6176
G1 X137.742 Y146.154 E9.63752
G1 X137.295 Y145.651 E9.64638
G1 X136.911 Y145.098 E9.65525
G1 X136.595 Y144.503 E9.66412
G1 X136.352 Y143.876 E9.67297
G1 X136.185 Y143.224 E9.68183
G1 X136.096 Y142.556 E9.69071
G1 X136.081 Y142.145 E9.69612
G1 X136.081 Y97.855 E10.27931
G1 X136.121 Y97.183 E10.28817
G1 X136.24 Y96.52 E10.29704
G1 X136.437 Y95.877 E10.30589
G1 X136.709 Y95.261 E10.31476
G1 X137.052 Y94.682 E10.32362
G1 X137.461 Y94.147 E10.33249
G1 X137.742 Y93.846 E10.33791
G1 X138.811 Y92.777 E10.35782
G1 X139.209 Y92.414 E10.36491
G1 X139.858 Y91.878 E10.37599
G1 X140.402 Y91.481 E10.38486
G1 X140.989 Y91.151 E10.39373
G1 X141.611 Y90.893 E10.4026
G1 X142.259 Y90.711 E10.41146
G1 X142.924 Y90.606 E10.42032
G1 X143.469 Y90.58 E10.42751
G1 X163.745 Y90.58 E10.69449
G1 X164.417 Y90.62 E10.70335
G1 X165.08 Y90.739 E10.71222
G1 X165.723 Y90.936 E10.72108
G1 X166.355 Y91.216 E10.73018
G1 X167.356 Y91.735 E10.74503
G1 X167.934 Y92.08 E10.75389
G1 X168.467 Y92.491 E10.76275
G1 X168.948 Y92.962 E10.77162
G1 X169.37 Y93.487 E10.78049
G1 X169.726 Y94.058 E10.78935
G1 X170.012 Y94.668 E10.79822
G1 X170.224 Y95.307 E10.80708
G1 X170.359 Y95.966 E10.81594
G1 X170.416 Y96.769 E10.82654
G1 X170.416 Y106.582 E10.95575
G1 X188.249 Y106.582 E11.19057
G1 X188.921 Y106.622 E11.19943
G1 X189.584 Y106.741 E11.2083
G1 X190.227 Y106.938 E11.21715
G1 X190.843 Y107.21 E11.22602
G1 X191.422 Y107.553 E11.23488
G1 X191.957 Y107.962 E11.24375
G1 X192.439 Y108.432 E11.25261
G1 X192.862 Y108.956 E11.26148
G1 X193.221 Y109.526 E11.27035
G1 X193.509 Y110.134 E11.27921
G1 X193.723 Y110.772 E11.28807
G1 X193.859 Y111.432 E11.29694
G1 X193.919 Y112.252 E11.30777
G1 X193.919 Y127.749 E11.51183
G1 X193.879 Y128.421 E11.52069
G1 X193.76 Y129.084 E11.52956
G1 X193.563 Y129.727 E11.53841
G1 X193.291 Y130.343 E11.54728
G1 X192.948 Y130.922 E11.55614
M204 S625
M205 X10 Y10
G0 F2571.4 X192.53 Y130.788
M204 S500
M205 X5 Y5
G1 F1200 X192.123 Y131.292 E11.56467
G1 X191.657 Y131.742 E11.5732
G1 X191.14 Y132.131 E11.58172
G1 X190.578 Y132.454 E11.59026
G1 X189.981 Y132.705 E11.59878
G1 X189.357 Y132.881 E11.60732
G1 X188.717 Y132.978 E11.61584
G1 X188.249 Y132.999 E11.62201
G1 X169.996 Y132.999 E11.86236
G1 X169.996 Y143.231 E11.99709
G1 X169.956 Y143.878 E12.00562
G1 X169.837 Y144.514 E12.01414
G1 X169.64 Y145.131 E12.02267
G1 X169.369 Y145.72 E12.03121
G1 X169.027 Y146.27 E12.03973
G1 X168.62 Y146.774 E12.04826
G1 X168.154 Y147.224 E12.05679
G1 X167.637 Y147.613 E12.06531
G1 X167.163 Y147.892 E12.07256
G1 X166.162 Y148.411 E12.0874
G1 X165.569 Y148.673 E12.09594
G1 X164.949 Y148.86 E12.10447
G1 X164.311 Y148.969 E12.11299
G1 X163.745 Y149 E12.12045
G1 X143.919 Y149 E12.38151
G1 X143.657 Y148.993 E12.38496
G1 X143.177 Y148.969 E12.39129
G1 X142.533 Y148.897 E12.39982
G1 X141.903 Y148.746 E12.40835
G1 X141.297 Y148.519 E12.41687
G1 X140.723 Y148.219 E12.4254
G1 X140.094 Y147.772 E12.43556
G1 X139.476 Y147.261 E12.44612
G1 X139.109 Y146.927 E12.45265
G1 X138.039 Y145.857 E12.47258
G1 X137.61 Y145.372 E12.48111
G1 X137.244 Y144.837 E12.48964
G1 X136.947 Y144.262 E12.49816
G1 X136.723 Y143.654 E12.50669
G1 X136.575 Y143.023 E12.51523
G1 X136.501 Y142.145 E12.52683
G1 X136.501 Y97.855 E13.11001
G1 X136.541 Y97.208 E13.11855
G1 X136.66 Y96.572 E13.12707
G1 X136.857 Y95.955 E13.1356
G1 X137.128 Y95.366 E13.14414
G1 X137.47 Y94.816 E13.15266
G1 X138.039 Y94.143 E13.16427
G1 X139.108 Y93.074 E13.18417
G1 X139.477 Y92.738 E13.19075
G1 X140.126 Y92.202 E13.20183
G1 X140.65 Y91.821 E13.21036
G1 X141.217 Y91.508 E13.21889
G1 X141.818 Y91.266 E13.22742
G1 X142.444 Y91.101 E13.23594
G1 X143.086 Y91.014 E13.24447
G1 X143.469 Y91 E13.24952
G1 X163.745 Y91 E13.5165
G1 X164.392 Y91.04 E13.52504
G1 X165.028 Y91.159 E13.53356
G1 X165.645 Y91.356 E13.54209
G1 X166.162 Y91.589 E13.54955
G1 X167.163 Y92.108 E13.5644
G1 X167.718 Y92.441 E13.57292
G1 X168.228 Y92.84 E13.58145
G1 X168.686 Y93.299 E13.58999
G1 X169.083 Y93.811 E13.59852
G1 X169.414 Y94.367 E13.60704
G1 X169.675 Y94.96 E13.61557
G1 X169.86 Y95.581 E13.6241
G1 X169.967 Y96.22 E13.63263
G1 X169.996 Y96.769 E13.63987
G1 X169.996 Y107.002 E13.77461
G1 X188.249 Y107.002 E14.01496
G1 X188.896 Y107.042 E14.02349
G1 X189.532 Y107.161 E14.03201
G1 X190.149 Y107.358 E14.04054
G1 X190.738 Y107.629 E14.04908
G1 X191.288 Y107.971 E14.05761
G1 X191.792 Y108.378 E14.06614
G1 X192.242 Y108.844 E14.07467
G1 X192.631 Y109.361 E14.08318
